X: 1
T:Brig. Gen. Ronald ...
M:C|
L:1/8
Q:80
C:
S:March
K:HP
|: a/2f/2|
{gef}e3/4A/4{gcd}c3/4B/4{g}A{GdGe}A3/4e/4|
{g}c/4{d}A3/4{d}c/4e3/4{ag}ag3/4f/4|  !
{gef}e3/4A/4{gcd}c3/4B/4{g}A{GdGe}A3/4c/4|
{g}B/4{d}G3/4{gde}d3/4c/4{gBG}Ba3/4f/4{gef}e3/4A/4{gcd}c3/4B/4{g}A{GdGe}
A3/4e/4|
{g}c/4{d}A3/4{d}c/4e3/4{ag}ae3/4d/4|  !
{gcd}c{e}A3/4{d}c/4{g}B/4d3/4{e}G3/4{d}B/4|
{g}A2{GAG}A:| |:
{gf}g|  !
{ag}ae/4a3/4c/4{d}A3/4{gef}e3/4d/4|
{g}c/4{d}A3/4{gef}e3/4c/4{ag}ae3/4c/4|
{ag}ae/4a3/4c/4{d}A3/4{gef}e3/4c/4|  !
{g}B/4{d}G3/4{gde}d3/4c/4{gBG}B{gf}g{ag}ae/4a3/4c/4{d}A3/4{gef}e3/4d/4|
{g}c/4{d}A3/4{gef}e3/4c/4{ag}ae3/4d/4|
{gcd}c{e}A3/4{d}c/4{g}B/4d3/4{e}G3/4{d}B/4|  !
{g}A2{GAG}A:| |:
{gef}e/2d/2|
{g}c/4e3/4{g}A3/4{d}c/4{g}A{GdGe}A3/4{d}c/4|  !
{g}c/4e3/4{g}A3/4{d}c/4{gef}e3/4d/4{g}c/4{d}A3/4|
{g}c/4e3/4{g}A3/4{d}c/4{g}A3/4{d}c/4{g}c/4{d}A3/4|
{g}B/4{d}G3/4{gde}d3/4c/4{gBG}B{gef}e3/4d/4{g}c/4e3/4{g}A3/4{d}c/4{g}A{G
dGe}A3/4{d}c/4|  !
{g}c/4e3/4{g}A3/4{d}c/4{gef}e3/4d/4{g}c/4{d}A3/4|
{gcd}c{e}A3/4{d}c/4{g}B/4d3/4{e}G3/4{d}B/4|
{g}A2{GAG}A:| |:  !
{gf}g|
a3/4e/4{A}e3/4a/4c/4e3/4a/2f/4|
{gef}e3/4A/4{d}c/4e3/4a3/4e/4{g}c/4{d}A3/4|  !
a3/4e/4{A}e3/4a/4c/4e3/4a3/4c/4|
{g}B/4{d}G3/4{gde}d3/4c/4{gBG}B|1 {gf}ga3/4e/4{A}e3/4a/4c/4e3/4a/2f/4|
{gef}e3/4A/4{d}c/4e3/4a3/4e/4{g}c/4{d}A3/4|  !
{gcd}c{e}A3/4{d}c/4{g}B/4d3/4{e}G3/4{d}B/4|
{g}A2{GAG}A:|2
{g}c3/4d/4|  !
{g}e3/4f/4{g}d/4e3/4{g}c/4{d}A3/4{d}c/4e3/4|
{g}f/4a3/4{fg}f3/4d/4{gef}e3/4A/4{g}c/4d3/4|
{gcd}c{e}A3/4{d}c/4{g}B/4d3/4{e}G/4{d}B3/4|  !
{g}A2{GAG}A|]
